; G-Code generated by Simplify3D(R) Version 4.0.0
; Jan 3, 2018 at 5:34:54 PM
; Settings Summary
;   processName,Process1-1
;   applyToModels,40mmcube
;   profileName,Bialy PLA 0.8 (modified)
;   profileVersion,2017-12-02 22:09:01
;   baseProfile,Domyslne (modified)
;   printMaterial,
;   printQuality,
;   printExtruders,
;   extruderName,Extruder 1
;   extruderToolheadNumber,0
;   extruderDiameter,0.8
;   extruderAutoWidth,0
;   extruderWidth,0.8
;   extrusionMultiplier,0.89
;   extruderUseRetract,1
;   extruderRetractionDistance,0.8
;   extruderExtraRestartDistance,0.2
;   extruderRetractionZLift,0.2
;   extruderRetractionSpeed,3600
;   extruderUseCoasting,1
;   extruderCoastingDistance,0.2
;   extruderUseWipe,1
;   extruderWipeDistance,4
;   primaryExtruder,0
;   layerHeight,0.4
;   topSolidLayers,0
;   bottomSolidLayers,0
;   perimeterOutlines,1
;   printPerimetersInsideOut,1
;   startPointOption,2
;   startPointOriginX,0
;   startPointOriginY,0
;   sequentialIslands,0
;   spiralVaseMode,1
;   firstLayerHeightPercentage,1
;   firstLayerWidthPercentage,100
;   firstLayerUnderspeed,0.55
;   useRaft,0
;   raftExtruder,0
;   raftTopLayers,3
;   raftBaseLayers,1
;   raftOffset,3
;   raftSeparationDistance,0.16
;   raftTopInfill,100
;   aboveRaftSpeedMultiplier,0.3
;   useSkirt,1
;   skirtExtruder,0
;   skirtLayers,1
;   skirtOutlines,5
;   skirtOffset,3
;   usePrimePillar,0
;   primePillarExtruder,999
;   primePillarWidth,12
;   primePillarLocation,7
;   primePillarSpeedMultiplier,1
;   useOozeShield,0
;   oozeShieldExtruder,999
;   oozeShieldOffset,2
;   oozeShieldOutlines,1
;   oozeShieldSidewallShape,1
;   oozeShieldSidewallAngle,30
;   oozeShieldSpeedMultiplier,1
;   infillExtruder,0
;   internalInfillPattern,Rectilinear
;   externalInfillPattern,Rectilinear
;   infillPercentage,0
;   outlineOverlapPercentage,35
;   infillExtrusionWidthPercentage,90
;   minInfillLength,5
;   infillLayerInterval,1
;   internalInfillAngles,0,60,-60
;   overlapInternalInfillAngles,1
;   externalInfillAngles,45,-45,90,0
;   generateSupport,0
;   supportExtruder,0
;   supportInfillPercentage,35
;   supportExtraInflation,0
;   supportBaseLayers,0
;   denseSupportExtruder,0
;   denseSupportLayers,0
;   denseSupportInfillPercentage,70
;   supportLayerInterval,1
;   supportHorizontalPartOffset,0.5
;   supportUpperSeparationLayers,0
;   supportLowerSeparationLayers,1
;   supportType,0
;   supportGridSpacing,4
;   maxOverhangAngle,45
;   supportAngles,0
;   temperatureName,Extruder 1 Temperature,Heated Bed
;   temperatureNumber,0,0
;   temperatureSetpointCount,1,3
;   temperatureSetpointLayers,1,1,3,10
;   temperatureSetpointTemperatures,200,60,55,50
;   temperatureStabilizeAtStartup,1,1
;   temperatureHeatedBed,0,1
;   temperatureRelayBetweenLayers,0,0
;   temperatureRelayBetweenLoops,0,0
;   fanLayers,2
;   fanSpeeds,100
;   blipFanToFullPower,0
;   adjustSpeedForCooling,1
;   minSpeedLayerTime,15
;   minCoolingSpeedSlowdown,40
;   increaseFanForCooling,0
;   minFanLayerTime,45
;   maxCoolingFanSpeed,100
;   increaseFanForBridging,1
;   bridgingFanSpeed,100
;   use5D,1
;   relativeEdistances,1
;   allowEaxisZeroing,1
;   independentExtruderAxes,0
;   includeM10123,0
;   stickySupport,1
;   applyToolheadOffsets,0
;   gcodeXoffset,0
;   gcodeYoffset,0
;   gcodeZoffset,0.2
;   overrideMachineDefinition,0
;   machineTypeOverride,0
;   strokeXoverride,200
;   strokeYoverride,200
;   strokeZoverride,200
;   originOffsetXoverride,0
;   originOffsetYoverride,0
;   originOffsetZoverride,0
;   homeXdirOverride,1
;   homeYdirOverride,-1
;   homeZdirOverride,-1
;   flipXoverride,1
;   flipYoverride,1
;   flipZoverride,1
;   toolheadOffsets,0,0|0,0|0,0|0,0|0,0|0,0
;   overrideFirmwareConfiguration,0
;   firmwareTypeOverride,RepRap (Marlin/Repetier/Sprinter)
;   GPXconfigOverride,r2
;   baudRateOverride,250000
;   overridePrinterModels,0
;   printerModelsOverride
;   startingGcode,G28,
;   layerChangeGcode,
;   retractionGcode,
;   toolChangeGcode,
;   endingGcode,G28 Y;,M106 S0,M104 S0 ; turn off extruder,M140 S0 ; turn off bed,M84 ; disable motors
;   exportFileFormat,gcode
;   celebration,0
;   celebrationSong,Random Song
;   postProcessing,
;   defaultSpeed,3000
;   outlineUnderspeed,0.35
;   solidInfillUnderspeed,0.4
;   supportUnderspeed,0.3
;   rapidXYspeed,9000
;   rapidZspeed,120
;   minBridgingArea,10
;   bridgingExtraInflation,0
;   bridgingExtrusionMultiplier,0.95
;   bridgingSpeedMultiplier,0.8
;   useFixedBridgingAngle,0
;   fixedBridgingAngle,0
;   applyBridgingToPerimeters,1
;   filamentDiameters,1.75|1.75|1.75|1.75|1.75|1.75
;   filamentPricesPerKg,46|46|46|46|46|46
;   filamentDensities,1.25|1.25|1.25|1.25|1.25|1.25
;   useMinPrintHeight,0
;   minPrintHeight,5.7
;   useMaxPrintHeight,0
;   maxPrintHeight,4.28
;   useDiaphragm,0
;   diaphragmLayerInterval,20
;   robustSlicing,1
;   mergeAllIntoSolid,0
;   onlyRetractWhenCrossingOutline,1
;   retractBetweenLayers,1
;   useRetractionMinTravel,1
;   retractionMinTravel,0
;   retractWhileWiping,1
;   onlyWipeOutlines,1
;   avoidCrossingOutline,1
;   maxMovementDetourFactor,25
;   toolChangeRetractionDistance,12
;   toolChangeExtraRestartDistance,-0.5
;   toolChangeRetractionSpeed,600
;   externalThinWallType,1
;   internalThinWallType,1
;   thinWallAllowedOverlapPercentage,20
;   singleExtrusionMinLength,0.4
;   singleExtrusionMinPrintingWidthPercentage,50
;   singleExtrusionMaxPrintingWidthPercentage,120
;   singleExtrusionEndpointExtension,0.6
;   horizontalSizeCompensation,0
G90
M83
M150 R255 I1
G4 P500
M150 R255 U97 I2
G4 P500
M150 R255 U200 I3
G4 P500
M150 R255 U255 I4
G4 P500
M150 R150 U255 I5
G4 P500
M150 R50 U255 I6
G4 P500
M150 R0 U255 I7
G4 P500
M150 R0 U255 B50 I8
G4 P500
M150 R0 U255 B150 I9
G4 P500
M150 R0 U255 B255 I10
G4 P500
M150 R0 U150 B255 I11
G4 P500
M150 R0 U50 B255 I12
G4 P500
M150 R0 U0 B255 I13
G4 P500
M150 R50 U0 B255 I14
G4 P500
M150 R150 U0 B255 I15
G4 P500
M150 R255 U0 B255 I16
G4 P500
M150 R255 U0 B150 I17
G4 P500
M150 R255 U0 B50 I18
G4 P500
M150 R255 U0 B0 I19
G4 P500
M150 R255 U0 B0 I20
G4 P500
M150 R255 U0 B0 I21
G4 P500
M150 R200 U0 B0 I22
G4 P500
M150 R150 U0 B0 I23
G4 P500
M150 R100 U0 B0 I24
G4 P500
M150 R50 U0 B0 I25
G4 P500
M150 R50 U0 B0 I26
G4 P1500
M150 R255 U255 B255
G4 P500
M150
G4 P500
M150 R255 U255 B255
G4 P500
M150
G4 P500
M150 R255 U255 B255
G4 P500
M150
G4 P500

M140 S60
M190 S60
M104 S200 T0
M109 S200 T0
G28
G1 E-0.8000 F3600
G1 Z0.404 F120
; process Process1-1
; layer 1, Z = 0.004
T0
; tool H0.400 W0.800
; skirt
G1 X123.948 Y71.718 F9000
G1 Z0.204 F120
G1 E1.0000 F1080
G1 X126.718 Y68.948 E0.4638 F1200
G1 X128.041 Y68.400 E0.1696
G1 X141.959 Y68.400 E1.6479
G1 X143.282 Y68.948 E0.1696
G1 X146.052 Y71.718 E0.4638
G1 X146.600 Y73.041 E0.1696
G1 X146.600 Y86.959 E1.6479
G1 X146.052 Y88.282 E0.1696
G1 X143.282 Y91.052 E0.4638
G1 X141.959 Y91.600 E0.1696
G1 X128.041 Y91.600 E1.6479
G1 X126.718 Y91.052 E0.1696
G1 X123.948 Y88.282 E0.4638
G1 X123.400 Y86.959 E0.1696
G1 X123.400 Y73.041 E1.6479
G1 X123.872 Y71.903 E0.1459
G1 X123.948 Y71.718 F1200
G1 X124.626 Y72.171 F9000
G1 X127.171 Y69.626 E0.4262 F1200
G1 X128.200 Y69.200 E0.1319
G1 X141.800 Y69.200 E1.6102
G1 X142.829 Y69.626 E0.1319
G1 X145.374 Y72.171 E0.4262
G1 X145.800 Y73.200 E0.1319
G1 X145.800 Y86.800 E1.6102
G1 X145.374 Y87.829 E0.1319
G1 X142.829 Y90.374 E0.4262
G1 X141.800 Y90.800 E0.1319
G1 X128.200 Y90.800 E1.6102
G1 X127.171 Y90.374 E0.1319
G1 X124.626 Y87.829 E0.4262
G1 X124.200 Y86.800 E0.1319
G1 X124.200 Y73.200 E1.6102
G1 X124.550 Y72.356 E0.1082
G1 X124.626 Y72.171 F1200
G1 X125.304 Y72.624 F9000
G1 X127.624 Y70.304 E0.3885 F1200
G1 X128.360 Y70.000 E0.0942
G1 X141.640 Y70.000 E1.5725
G1 X142.376 Y70.304 E0.0942
G1 X144.696 Y72.624 E0.3885
G1 X145.000 Y73.360 E0.0942
G1 X145.000 Y86.640 E1.5725
G1 X144.696 Y87.376 E0.0942
G1 X142.376 Y89.696 E0.3885
G1 X141.640 Y90.000 E0.0942
G1 X128.360 Y90.000 E1.5725
G1 X127.624 Y89.696 E0.0942
G1 X125.304 Y87.376 E0.3885
G1 X125.000 Y86.640 E0.0942
G1 X125.000 Y73.360 E1.5725
G1 X125.228 Y72.809 E0.0705
G1 X125.304 Y72.624 F1200
G1 X125.983 Y73.078 F9000
G1 X128.078 Y70.983 E0.3508 F1200
G1 X128.519 Y70.800 E0.0565
G1 X141.481 Y70.800 E1.5349
G1 X141.922 Y70.983 E0.0565
G1 X144.017 Y73.078 E0.3508
G1 X144.200 Y73.519 E0.0565
G1 X144.200 Y86.481 E1.5349
G1 X144.017 Y86.922 E0.0565
G1 X141.922 Y89.017 E0.3508
G1 X141.481 Y89.200 E0.0565
G1 X128.519 Y89.200 E1.5349
G1 X128.078 Y89.017 E0.0565
G1 X125.983 Y86.922 E0.3508
G1 X125.800 Y86.481 E0.0565
G1 X125.800 Y73.519 E1.5349
G1 X125.906 Y73.262 E0.0328
G1 X125.983 Y73.078 F1200
G1 X126.661 Y73.531 F9000
G1 X128.531 Y71.661 E0.3131 F1200
G1 X128.678 Y71.600 E0.0188
G1 X141.322 Y71.600 E1.4972
G1 X141.469 Y71.661 E0.0188
G1 X143.339 Y73.531 E0.3131
G1 X143.400 Y73.678 E0.0188
G1 X143.400 Y86.322 E1.4972
G1 X143.339 Y86.469 E0.0188
G1 X141.469 Y88.339 E0.3131
G1 X141.322 Y88.400 E0.0188
G1 X128.678 Y88.400 E1.4972
G1 X128.531 Y88.339 E0.0188
G1 X126.661 Y86.469 E0.3131
G1 X126.600 Y86.322 E0.0188
G1 X126.600 Y73.719 E1.4923
G1 X126.600 Y73.678 F1200
G1 X126.661 Y73.531 F1200
G1 E-0.8000 F3600
G1 Z0.404 F120
; outer perimeter
G1 X130.392 Y75.392 F9000
G1 X130.392 Y75.396 F9000
G1 X130.400 Y75.400 F9000
G1 Z0.204 F120
G1 E1.0000 F3600
G1 X139.600 Y75.400 E1.0893 F420
G1 X139.600 Y84.600 E1.0893
G1 X130.400 Y84.600 E1.0893
G1 X130.400 Y75.600 E1.0657
G1 X130.400 Y75.400 F420
G1 X134.400 Y75.400 F3000
; layer 2, Z = 0.404
M106 S255
G1 X130.400 Y75.400 F9000
G1 X139.600 Y75.400 Z0.204 E0.6808 F420
G1 X139.600 Y84.600 Z0.304 E0.8170
G1 X130.400 Y84.600 Z0.404 E0.9532
G1 X130.400 Y75.400 Z0.504 E1.0893
; layer 3, Z = 0.804
M140 S55
G1 X139.600 Y75.400 Z0.604 E1.0893 F420
G1 X139.600 Y84.600 Z0.704 E1.0893
G1 X130.400 Y84.600 Z0.804 E1.0893
G1 X130.400 Y75.400 Z0.904 E1.0893
; layer 4, Z = 1.204
G1 X139.600 Y75.400 Z1.004 E1.0893 F420
G1 X139.600 Y84.600 Z1.104 E1.0893
G1 X130.400 Y84.600 Z1.204 E1.0893
G1 X130.400 Y75.400 Z1.304 E1.0893
; layer 5, Z = 1.604
G1 X139.600 Y75.400 Z1.404 E1.0893 F420
G1 X139.600 Y84.600 Z1.504 E1.0893
G1 X130.400 Y84.600 Z1.604 E1.0893
G1 X130.400 Y75.400 Z1.704 E1.0893
; layer 6, Z = 2.004
G1 X139.600 Y75.400 Z1.804 E1.0893 F420
G1 X139.600 Y84.600 Z1.904 E1.0893
G1 X130.400 Y84.600 Z2.004 E1.0893
G1 X130.400 Y75.400 Z2.104 E1.0893
; layer 7, Z = 2.404
G1 X139.600 Y75.400 Z2.204 E1.0893 F420
G1 X139.600 Y84.600 Z2.304 E1.0893
G1 X130.400 Y84.600 Z2.404 E1.0893
G1 X130.400 Y75.400 Z2.504 E1.0893
; layer 8, Z = 2.804
G1 X139.600 Y75.400 Z2.604 E1.0893 F420
G1 X139.600 Y84.600 Z2.704 E1.0893
G1 X130.400 Y84.600 Z2.804 E1.0893
G1 X130.400 Y75.400 Z2.904 E1.0893
; layer 9, Z = 3.204
G1 X139.600 Y75.400 Z3.004 E1.0893 F420
G1 X139.600 Y84.600 Z3.104 E1.0893
G1 X130.400 Y84.600 Z3.204 E1.0893
G1 X130.400 Y75.400 Z3.304 E1.0893
; layer 10, Z = 3.604
M140 S50
G1 X139.600 Y75.400 Z3.404 E1.0893 F420
G1 X139.600 Y84.600 Z3.504 E1.0893
G1 X130.400 Y84.600 Z3.604 E1.0893
G1 X130.400 Y75.400 Z3.704 E1.0893
; layer 11, Z = 4.004
G1 X139.600 Y75.400 Z3.804 E1.0893 F420
G1 X139.600 Y84.600 Z3.904 E1.0893
G1 X130.400 Y84.600 Z4.004 E1.0893
G1 X130.400 Y75.400 Z4.104 E1.0893
; layer 12, Z = 4.404
G1 X139.600 Y75.400 Z4.204 E1.0893 F420
G1 X139.600 Y84.600 Z4.304 E1.0893
G1 X130.400 Y84.600 Z4.404 E1.0893
G1 X130.400 Y75.400 Z4.504 E1.0893
; layer 13, Z = 4.804
G1 X139.600 Y75.400 Z4.604 E1.0893 F420
G1 X139.600 Y84.600 Z4.704 E1.0893
G1 X130.400 Y84.600 Z4.804 E1.0893
G1 X130.400 Y75.400 Z4.904 E1.0893
; layer 14, Z = 5.204
G1 X139.600 Y75.400 Z5.004 E1.0893 F420
G1 X139.600 Y84.600 Z5.104 E1.0893
G1 X130.400 Y84.600 Z5.204 E1.0893
G1 X130.400 Y75.400 Z5.304 E1.0893
; layer 15, Z = 5.604
G1 X139.600 Y75.400 Z5.404 E1.0893 F420
G1 X139.600 Y84.600 Z5.504 E1.0893
G1 X130.400 Y84.600 Z5.604 E1.0893
G1 X130.400 Y75.400 Z5.704 E1.0893
; layer 16, Z = 6.004
G1 X139.600 Y75.400 Z5.804 E1.0893 F420
G1 X139.600 Y84.600 Z5.904 E1.0893
G1 X130.400 Y84.600 Z6.004 E1.0893
G1 X130.400 Y75.400 Z6.104 E1.0893
; layer 17, Z = 6.404
G1 X139.600 Y75.400 Z6.204 E1.0893 F420
G1 X139.600 Y84.600 Z6.304 E1.0893
G1 X130.400 Y84.600 Z6.404 E1.0893
G1 X130.400 Y75.400 Z6.504 E1.0893
; layer 18, Z = 6.804
G1 X139.600 Y75.400 Z6.604 E1.0893 F420
G1 X139.600 Y84.600 Z6.704 E1.0893
G1 X130.400 Y84.600 Z6.804 E1.0893
G1 X130.400 Y75.400 Z6.904 E1.0893
; layer 19, Z = 7.204
G1 X139.600 Y75.400 Z7.004 E1.0893 F420
G1 X139.600 Y84.600 Z7.104 E1.0893
G1 X130.400 Y84.600 Z7.204 E1.0893
G1 X130.400 Y75.400 Z7.304 E1.0893
; layer 20, Z = 7.604
G1 X139.600 Y75.400 Z7.404 E1.0893 F420
G1 X139.600 Y84.600 Z7.504 E1.0893
G1 X130.400 Y84.600 Z7.604 E1.0893
G1 X130.400 Y75.400 Z7.704 E1.0893
; layer 21, Z = 8.004
G1 X139.600 Y75.400 Z7.804 E1.0893 F420
G1 X139.600 Y84.600 Z7.904 E1.0893
G1 X130.400 Y84.600 Z8.004 E1.0893
G1 X130.400 Y75.400 Z8.104 E1.0893
; layer 22, Z = 8.404
G1 X139.600 Y75.400 Z8.204 E1.0893 F420
G1 X139.600 Y84.600 Z8.304 E1.0893
G1 X130.400 Y84.600 Z8.404 E1.0893
G1 X130.400 Y75.400 Z8.504 E1.0893
; layer 23, Z = 8.804
G1 X139.600 Y75.400 Z8.604 E1.0893 F420
G1 X139.600 Y84.600 Z8.704 E1.0893
G1 X130.400 Y84.600 Z8.804 E1.0893
G1 X130.400 Y75.400 Z8.904 E1.0893
; layer 24, Z = 9.204
G1 X139.600 Y75.400 Z9.004 E1.0893 F420
G1 X139.600 Y84.600 Z9.104 E1.0893
G1 X130.400 Y84.600 Z9.204 E1.0893
G1 X130.400 Y75.400 Z9.304 E1.0893
; layer 25, Z = 9.604
G1 X139.600 Y75.400 Z9.404 E1.0893 F420
G1 X139.600 Y84.600 Z9.504 E1.0893
G1 X130.400 Y84.600 Z9.604 E1.0893
G1 X130.400 Y75.400 Z9.704 E1.0893
; layer 26, Z = 10.004
G1 X139.600 Y75.400 Z9.804 E1.0893 F420
G1 X139.600 Y84.600 Z9.904 E1.0893
G1 X130.400 Y84.600 Z10.004 E1.0893
G1 X130.400 Y75.400 Z10.104 E1.0893
; layer 27, Z = 10.404
G1 X139.600 Y75.400 Z10.204 E1.0893 F420
G1 X139.600 Y84.600 Z10.304 E1.0893
G1 X130.400 Y84.600 Z10.404 E1.0893
G1 X130.400 Y75.400 Z10.504 E1.0893
; layer 28, Z = 10.804
G1 X139.600 Y75.400 Z10.604 E1.0893 F420
G1 X139.600 Y84.600 Z10.704 E1.0893
G1 X130.400 Y84.600 Z10.804 E1.0893
G1 X130.400 Y75.400 Z10.904 E1.0893
; layer 29, Z = 11.204
G1 X139.600 Y75.400 Z11.004 E1.0893 F420
G1 X139.600 Y84.600 Z11.104 E1.0893
G1 X130.400 Y84.600 Z11.204 E1.0893
G1 X130.400 Y75.400 Z11.304 E1.0893
; layer 30, Z = 11.604
G1 X139.600 Y75.400 Z11.404 E1.0893 F420
G1 X139.600 Y84.600 Z11.504 E1.0893
G1 X130.400 Y84.600 Z11.604 E1.0893
G1 X130.400 Y75.400 Z11.704 E1.0893
; layer 31, Z = 12.004
G1 X139.600 Y75.400 Z11.804 E1.0893 F420
G1 X139.600 Y84.600 Z11.904 E1.0893
G1 X130.400 Y84.600 Z12.004 E1.0893
G1 X130.400 Y75.400 Z12.104 E1.0893
; layer 32, Z = 12.404
G1 X139.600 Y75.400 Z12.204 E1.0893 F420
G1 X139.600 Y84.600 Z12.304 E1.0893
G1 X130.400 Y84.600 Z12.404 E1.0893
G1 X130.400 Y75.400 Z12.504 E1.0893
; layer 33, Z = 12.804
G1 X139.600 Y75.400 Z12.604 E1.0893 F420
G1 X139.600 Y84.600 Z12.704 E1.0893
G1 X130.400 Y84.600 Z12.804 E1.0893
G1 X130.400 Y75.400 Z12.904 E1.0893
; layer 34, Z = 13.204
G1 X139.600 Y75.400 Z13.004 E1.0893 F420
G1 X139.600 Y84.600 Z13.104 E1.0893
G1 X130.400 Y84.600 Z13.204 E1.0893
G1 X130.400 Y75.400 Z13.304 E1.0893
; layer 35, Z = 13.604
G1 X139.600 Y75.400 Z13.404 E1.0893 F420
G1 X139.600 Y84.600 Z13.504 E1.0893
G1 X130.400 Y84.600 Z13.604 E1.0893
G1 X130.400 Y75.400 Z13.704 E1.0893
; layer 36, Z = 14.004
G1 X139.600 Y75.400 Z13.804 E1.0893 F420
G1 X139.600 Y84.600 Z13.904 E1.0893
G1 X130.400 Y84.600 Z14.004 E1.0893
G1 X130.400 Y75.400 Z14.104 E1.0893
; layer 37, Z = 14.404
G1 X139.600 Y75.400 Z14.204 E1.0893 F420
G1 X139.600 Y84.600 Z14.304 E1.0893
G1 X130.400 Y84.600 Z14.404 E1.0893
G1 X130.400 Y75.400 Z14.504 E1.0893
; layer 38, Z = 14.804
G1 X139.600 Y75.400 Z14.604 E1.0893 F420
G1 X139.600 Y84.600 Z14.704 E1.0893
G1 X130.400 Y84.600 Z14.804 E1.0893
G1 X130.400 Y75.400 Z14.904 E1.0893
G1 X139.600 Y75.400 Z15.004 E0.9532
G1 X139.600 Y84.600 Z15.004 E0.8170
G1 X130.400 Y84.600 Z15.004 E0.6808
G1 X130.400 Y75.400 Z15.004 E0.5447
G1 E-0.8000 F3600
; layer end
G28 Y;
M106 S0
M104 S0 ; turn off extruder
M140 S0 ; turn off bed
M84 ; disable motors
; Build Summary
